assets/images/icons/set2/check.svg

<svg xmlns="http://www.w3.org/2000/svg" width="28" height="28" xmlns:xlink="http://www.w3.org/1999/xlink" id="set2-check">
  <use xlink:href="#a16" transform="translate(4 4)"/>
  <defs>
    <path id="a16" fill-rule="evenodd" d="M20 10c0 5.5228-4.4771 10-10 10-5.52286 0-10-4.4772-10-10C0 4.47717 4.47714 0 10 0c5.5229 0 10 4.47717 10 10zm-13.70709.8743c.3905-.3905 1.02368-.3905 1.41418 0l1.44016 1.44 2.89995-5.76376c.2483-.49341.8494-.69214 1.3428-.44385.4934.24817.6921.84936.4439 1.34277l-3.522 7.00004c-.3063.6087-1.11848.7395-1.60038.2575l-2.41861-2.4185c-.39054-.3906-.39054-1.0237 0-1.4142z"/>
  </defs>
</svg>

<svg width="28" height="28" viewBox="0 0 28 28" version="1.1" xmlns="http://www.w3.org/2000/svg" xmlns:xlink="http://www.w3.org/1999/xlink">
<title>@$&#9;</title>
<desc>Created using Figma</desc>
<g id="Canvas" transform="translate(-396 -1834)">
<g id="Icon/Misc/Green/Check">
<g id="Icon/Misc/Green/Check">
<g id="Combined Shape">
<use xlink:href="#path0_fill" transform="translate(400 1838)" fill="#2ABF00"/>
</g>
</g>
</g>
</g>
<defs>
<path id="path0_fill" fill-rule="evenodd" d="M 20 10C 20 15.5228 15.5229 20 10 20C 4.47714 20 0 15.5228 0 10C 0 4.47717 4.47714 0 10 0C 15.5229 0 20 4.47717 20 10ZM 6.29291 10.8743C 6.68341 10.4838 7.31659 10.4838 7.70709 10.8743L 9.14725 12.3143L 12.0472 6.55054C 12.2955 6.05713 12.8966 5.8584 13.39 6.10669C 13.8834 6.35486 14.0821 6.95605 13.8339 7.44946L 10.3119 14.4495C 10.0056 15.0582 9.19342 15.189 8.71152 14.707L 6.29291 12.2885C 5.90237 11.8979 5.90237 11.2648 6.29291 10.8743Z"/>
</defs>
</svg>
